!!!SOCIAL_FUNCTION:	corn dance songs
!!!PDT:	1957
!!!OTL: No_31_The_Mockingbird_Sings_in_the_Morning.krn
!!!LING_GROUP: Keresan
!!!LANG: Tone
!!!REG: Southwest
**kern
*staff1
=1-
*clefF4
*k[f#]
*M2/4
8G\L
8G\J
8G\L
8G\J
=2
*M5/8
16A\LL
16G\J
8G\
8G\
8G\
8G\J
=3
*M2/4
8G\L
8d\J
16e\LL
16d\
16d\
16A\JJ
=4
8d\L
8d\J
8A\L
8A\J
=5
8d\L
16e\L
16d\JJ
16B\LL
16A\
16A\
16G\JJ
=6
8A\L
8A\J
8G\L
8G\J
=7
8G\L
8G\J
8A\L
16A\L
16G\JJ
=8
8A\L
8F#\J
8G\L
8G\J
=9
8G\L
8G\J
8A\L
16A\L
16G\JJ
=10
*M5/8
8A\L
8F#\
16A\L
16G\J
8G\
8G\J
=11
*M3/8
16A\LL
16G\J
8G\J
8r
=12
*M2/4
16A\LL
16G\J
8G\J
16A\LL
16G\J
8G\J
=13!|:
8G\L
8d\J
16e\LL
16d\
16d\
16A\JJ
=14
8d\L
8d\J
8A\L
8A\J
=15
8d\L
16e\L
16d\JJ
16B\LL
16A\
16B\
16A\JJ
=16
8A\L
8A\J
8G\L
8G\J
=17
8G\L
8G\J
8A\L
16A\L
16G\JJ
=18
8A\L
8F#\J
8G\
8r
=19
*M3/4
8G\L
8G\J
8A\L
16A\L
16G\JJ
8A\L
8F#\J
=20
*M3/8
16A\LL
16G\J
8G\
16G\L
16D\JJ
=21
16A\LL
16G\J
8G\
16G\L
16D\JJ
=22
*M2/4
8A\L
8G\J
8A\L
16A\Jk
16r
=23
8A\L
16G\L
16F#\JJ
16A\LL
16G\
16A\
16G\JJ
=24
8A\L
8A\J
8G\L
8G\J
=25
8G\L
8G\J
8A\L
16A\L
16G\JJ
=26
8A\L
8A\J
8G\L
8G\J
=27
8G\L
8G\J
8A\L
16A\L
16G\JJ
=28
8A\L
8F#\J
8G\L
8G\J
=29
8G\L
8G\J
8A\L
16A\L
16G\JJ
=30
*M5/8
8A\L
8F#\
16G\L
16G\J
8G\J
8r
=31
*M3/8
16A\LL
16G\J
8G\
16G\Jk
16r
=32
*M3/4
16A\LL
16G\J
8G\J
16A\LL
16G\J
8G\J
8G\L
8F#\J
=33
8A\L
16A\L
16G\JJ
8A\L
8A\J
8G\
8r
=34
*M2/4
8G\L
8G\J
8A\L
16A\L
16G\JJ
=35
8A\L
8A\J
8G\L
8G\J
=36
8G\L
8G\J
8A\L
16A\L
16G\JJ
=37
8A\L
8F#\J
8G\L
8G\J
=38
*M3/4
8G\L
8G\J
8A\L
8G\J
8A\L
8F#\J
=39
*M3/8
8G\L
8G\
16G\L
16D\JJ
=40
*M2/4
4G\
8G\
8r
=41
16A\LL
16G\J
8G\J
16A\LL
16G\J
8G\J
==:|!
*-
